assets/luts/warm_therapeutic.cube
# warm_therapeutic.cube
# Warm therapeutic LUT: subtle red/yellow lift, gentle blue pull-down.
# Generated programmatically — minimal valid 3D LUT for FFmpeg lut3d filter.
# Replace with a professionally graded .cube for production.
TITLE "Warm Therapeutic"
LUT_3D_SIZE 5
DOMAIN_MIN 0.0 0.0 0.0
DOMAIN_MAX 1.0 1.0 1.0
0.040000 0.010000 0.000000
0.280000 0.010000 0.000000
0.520000 0.010000 0.000000
0.760000 0.010000 0.000000
1.000000 0.010000 0.000000
0.040000 0.257500 0.000000
0.280000 0.257500 0.000000
0.520000 0.257500 0.000000
0.760000 0.257500 0.000000
1.000000 0.257500 0.000000
0.040000 0.505000 0.000000
0.280000 0.505000 0.000000
0.520000 0.505000 0.000000
0.760000 0.505000 0.000000
1.000000 0.505000 0.000000
0.040000 0.752500 0.000000
0.280000 0.752500 0.000000
0.520000 0.752500 0.000000
0.760000 0.752500 0.000000
1.000000 0.752500 0.000000
0.040000 1.000000 0.000000
0.280000 1.000000 0.000000
0.520000 1.000000 0.000000
0.760000 1.000000 0.000000
1.000000 1.000000 0.000000
0.040000 0.010000 0.240000
0.280000 0.010000 0.240000
0.520000 0.010000 0.240000
0.760000 0.010000 0.240000
1.000000 0.010000 0.240000
0.040000 0.257500 0.240000
0.280000 0.257500 0.240000
0.520000 0.257500 0.240000
0.760000 0.257500 0.240000
1.000000 0.257500 0.240000
0.040000 0.505000 0.240000
0.280000 0.505000 0.240000
0.520000 0.505000 0.240000
0.760000 0.505000 0.240000
1.000000 0.505000 0.240000
0.040000 0.752500 0.240000
0.280000 0.752500 0.240000
0.520000 0.752500 0.240000
0.760000 0.752500 0.240000
1.000000 0.752500 0.240000
0.040000 1.000000 0.240000
0.280000 1.000000 0.240000
0.520000 1.000000 0.240000
0.760000 1.000000 0.240000
1.000000 1.000000 0.240000
0.040000 0.010000 0.480000
0.280000 0.010000 0.480000
0.520000 0.010000 0.480000
0.760000 0.010000 0.480000
1.000000 0.010000 0.480000
0.040000 0.257500 0.480000
0.280000 0.257500 0.480000
0.520000 0.257500 0.480000
0.760000 0.257500 0.480000
1.000000 0.257500 0.480000
0.040000 0.505000 0.480000
0.280000 0.505000 0.480000
0.520000 0.505000 0.480000
0.760000 0.505000 0.480000
1.000000 0.505000 0.480000
0.040000 0.752500 0.480000
0.280000 0.752500 0.480000
0.520000 0.752500 0.480000
0.760000 0.752500 0.480000
1.000000 0.752500 0.480000
0.040000 1.000000 0.480000
0.280000 1.000000 0.480000
0.520000 1.000000 0.480000
0.760000 1.000000 0.480000
1.000000 1.000000 0.480000
0.040000 0.010000 0.720000
0.280000 0.010000 0.720000
0.520000 0.010000 0.720000
0.760000 0.010000 0.720000
1.000000 0.010000 0.720000
0.040000 0.257500 0.720000
0.280000 0.257500 0.720000
0.520000 0.257500 0.720000
0.760000 0.257500 0.720000
1.000000 0.257500 0.720000
0.040000 0.505000 0.720000
0.280000 0.505000 0.720000
0.520000 0.505000 0.720000
0.760000 0.505000 0.720000
1.000000 0.505000 0.720000
0.040000 0.752500 0.720000
0.280000 0.752500 0.720000
0.520000 0.752500 0.720000
0.760000 0.752500 0.720000
1.000000 0.752500 0.720000
0.040000 1.000000 0.720000
0.280000 1.000000 0.720000
0.520000 1.000000 0.720000
0.760000 1.000000 0.720000
1.000000 1.000000 0.720000
0.040000 0.010000 0.960000
0.280000 0.010000 0.960000
0.520000 0.010000 0.960000
0.760000 0.010000 0.960000
1.000000 0.010000 0.960000
0.040000 0.257500 0.960000
0.280000 0.257500 0.960000
0.520000 0.257500 0.960000
0.760000 0.257500 0.960000
1.000000 0.257500 0.960000
0.040000 0.505000 0.960000
0.280000 0.505000 0.960000
0.520000 0.505000 0.960000
0.760000 0.505000 0.960000
1.000000 0.505000 0.960000
0.040000 0.752500 0.960000
0.280000 0.752500 0.960000
0.520000 0.752500 0.960000
0.760000 0.752500 0.960000
1.000000 0.752500 0.960000
0.040000 1.000000 0.960000
0.280000 1.000000 0.960000
0.520000 1.000000 0.960000
0.760000 1.000000 0.960000
1.000000 1.000000 0.960000
