assets/luts/warm_therapeutic.cube
# warm_therapeutic.cube
# Warm therapeutic LUT: subtle red/yellow lift, gentle blue pull-down.
# Generated programmatically — minimal valid 3D LUT for FFmpeg lut3d filter.
# Replace with a professionally graded .cube for production.
TITLE "Warm Therapeutic"
LUT_3D_SIZE 17
DOMAIN_MIN 0.0 0.0 0.0
DOMAIN_MAX 1.0 1.0 1.0
0.040000 0.010000 0.000000
0.100000 0.010000 0.000000
0.160000 0.010000 0.000000
0.220000 0.010000 0.000000
0.280000 0.010000 0.000000
0.340000 0.010000 0.000000
0.400000 0.010000 0.000000
0.460000 0.010000 0.000000
0.520000 0.010000 0.000000
0.580000 0.010000 0.000000
0.640000 0.010000 0.000000
0.700000 0.010000 0.000000
0.760000 0.010000 0.000000
0.820000 0.010000 0.000000
0.880000 0.010000 0.000000
0.940000 0.010000 0.000000
1.000000 0.010000 0.000000
0.040000 0.071875 0.000000
0.100000 0.071875 0.000000
0.160000 0.071875 0.000000
0.220000 0.071875 0.000000
0.280000 0.071875 0.000000
0.340000 0.071875 0.000000
0.400000 0.071875 0.000000
0.460000 0.071875 0.000000
0.520000 0.071875 0.000000
0.580000 0.071875 0.000000
0.640000 0.071875 0.000000
0.700000 0.071875 0.000000
0.760000 0.071875 0.000000
0.820000 0.071875 0.000000
0.880000 0.071875 0.000000
0.940000 0.071875 0.000000
1.000000 0.071875 0.000000
0.040000 0.133750 0.000000
0.100000 0.133750 0.000000
0.160000 0.133750 0.000000
0.220000 0.133750 0.000000
0.280000 0.133750 0.000000
0.340000 0.133750 0.000000
0.400000 0.133750 0.000000
0.460000 0.133750 0.000000
0.520000 0.133750 0.000000
0.580000 0.133750 0.000000
0.640000 0.133750 0.000000
0.700000 0.133750 0.000000
0.760000 0.133750 0.000000
0.820000 0.133750 0.000000
0.880000 0.133750 0.000000
0.940000 0.133750 0.000000
1.000000 0.133750 0.000000
0.040000 0.195625 0.000000
0.100000 0.195625 0.000000
0.160000 0.195625 0.000000
0.220000 0.195625 0.000000
0.280000 0.195625 0.000000
0.340000 0.195625 0.000000
0.400000 0.195625 0.000000
0.460000 0.195625 0.000000
0.520000 0.195625 0.000000
0.580000 0.195625 0.000000
0.640000 0.195625 0.000000
0.700000 0.195625 0.000000
0.760000 0.195625 0.000000
0.820000 0.195625 0.000000
0.880000 0.195625 0.000000
0.940000 0.195625 0.000000
1.000000 0.195625 0.000000
0.040000 0.257500 0.000000
0.100000 0.257500 0.000000
0.160000 0.257500 0.000000
0.220000 0.257500 0.000000
0.280000 0.257500 0.000000
0.340000 0.257500 0.000000
0.400000 0.257500 0.000000
0.460000 0.257500 0.000000
0.520000 0.257500 0.000000
0.580000 0.257500 0.000000
0.640000 0.257500 0.000000
0.700000 0.257500 0.000000
0.760000 0.257500 0.000000
0.820000 0.257500 0.000000
0.880000 0.257500 0.000000
0.940000 0.257500 0.000000
1.000000 0.257500 0.000000
0.040000 0.319375 0.000000
0.100000 0.319375 0.000000
0.160000 0.319375 0.000000
0.220000 0.319375 0.000000
0.280000 0.319375 0.000000
0.340000 0.319375 0.000000
0.400000 0.319375 0.000000
0.460000 0.319375 0.000000
0.520000 0.319375 0.000000
0.580000 0.319375 0.000000
0.640000 0.319375 0.000000
0.700000 0.319375 0.000000
0.760000 0.319375 0.000000
0.820000 0.319375 0.000000
0.880000 0.319375 0.000000
0.940000 0.319375 0.000000
1.000000 0.319375 0.000000
0.040000 0.381250 0.000000
0.100000 0.381250 0.000000
0.160000 0.381250 0.000000
0.220000 0.381250 0.000000
0.280000 0.381250 0.000000
0.340000 0.381250 0.000000
0.400000 0.381250 0.000000
0.460000 0.381250 0.000000
0.520000 0.381250 0.000000
0.580000 0.381250 0.000000
0.640000 0.381250 0.000000
0.700000 0.381250 0.000000
0.760000 0.381250 0.000000
0.820000 0.381250 0.000000
0.880000 0.381250 0.000000
0.940000 0.381250 0.000000
1.000000 0.381250 0.000000
0.040000 0.443125 0.000000
0.100000 0.443125 0.000000
0.160000 0.443125 0.000000
0.220000 0.443125 0.000000
0.280000 0.443125 0.000000
0.340000 0.443125 0.000000
0.400000 0.443125 0.000000
0.460000 0.443125 0.000000
0.520000 0.443125 0.000000
0.580000 0.443125 0.000000
0.640000 0.443125 0.000000
0.700000 0.443125 0.000000
0.760000 0.443125 0.000000
0.820000 0.443125 0.000000
0.880000 0.443125 0.000000
0.940000 0.443125 0.000000
1.000000 0.443125 0.000000
0.040000 0.505000 0.000000
0.100000 0.505000 0.000000
0.160000 0.505000 0.000000
0.220000 0.505000 0.000000
0.280000 0.505000 0.000000
0.340000 0.505000 0.000000
0.400000 0.505000 0.000000
0.460000 0.505000 0.000000
0.520000 0.505000 0.000000
0.580000 0.505000 0.000000
0.640000 0.505000 0.000000
0.700000 0.505000 0.000000
0.760000 0.505000 0.000000
0.820000 0.505000 0.000000
0.880000 0.505000 0.000000
0.940000 0.505000 0.000000
1.000000 0.505000 0.000000
0.040000 0.566875 0.000000
0.100000 0.566875 0.000000
0.160000 0.566875 0.000000
0.220000 0.566875 0.000000
0.280000 0.566875 0.000000
0.340000 0.566875 0.000000
0.400000 0.566875 0.000000
0.460000 0.566875 0.000000
0.520000 0.566875 0.000000
0.580000 0.566875 0.000000
0.640000 0.566875 0.000000
0.700000 0.566875 0.000000
0.760000 0.566875 0.000000
0.820000 0.566875 0.000000
0.880000 0.566875 0.000000
0.940000 0.566875 0.000000
1.000000 0.566875 0.000000
0.040000 0.628750 0.000000
0.100000 0.628750 0.000000
0.160000 0.628750 0.000000
0.220000 0.628750 0.000000
0.280000 0.628750 0.000000
0.340000 0.628750 0.000000
0.400000 0.628750 0.000000
0.460000 0.628750 0.000000
0.520000 0.628750 0.000000
0.580000 0.628750 0.000000
0.640000 0.628750 0.000000
0.700000 0.628750 0.000000
0.760000 0.628750 0.000000
0.820000 0.628750 0.000000
0.880000 0.628750 0.000000
0.940000 0.628750 0.000000
1.000000 0.628750 0.000000
0.040000 0.690625 0.000000
0.100000 0.690625 0.000000
0.160000 0.690625 0.000000
0.220000 0.690625 0.000000
0.280000 0.690625 0.000000
0.340000 0.690625 0.000000
0.400000 0.690625 0.000000
0.460000 0.690625 0.000000
0.520000 0.690625 0.000000
0.580000 0.690625 0.000000
0.640000 0.690625 0.000000
0.700000 0.690625 0.000000
0.760000 0.690625 0.000000
0.820000 0.690625 0.000000
0.880000 0.690625 0.000000
0.940000 0.690625 0.000000
1.000000 0.690625 0.000000
0.040000 0.752500 0.000000
0.100000 0.752500 0.000000
0.160000 0.752500 0.000000
0.220000 0.752500 0.000000
0.280000 0.752500 0.000000
0.340000 0.752500 0.000000
0.400000 0.752500 0.000000
0.460000 0.752500 0.000000
0.520000 0.752500 0.000000
0.580000 0.752500 0.000000
0.640000 0.752500 0.000000
0.700000 0.752500 0.000000
0.760000 0.752500 0.000000
0.820000 0.752500 0.000000
0.880000 0.752500 0.000000
0.940000 0.752500 0.000000
1.000000 0.752500 0.000000
0.040000 0.814375 0.000000
0.100000 0.814375 0.000000
0.160000 0.814375 0.000000
0.220000 0.814375 0.000000
0.280000 0.814375 0.000000
0.340000 0.814375 0.000000
0.400000 0.814375 0.000000
0.460000 0.814375 0.000000
0.520000 0.814375 0.000000
0.580000 0.814375 0.000000
0.640000 0.814375 0.000000
0.700000 0.814375 0.000000
0.760000 0.814375 0.000000
0.820000 0.814375 0.000000
0.880000 0.814375 0.000000
0.940000 0.814375 0.000000
1.000000 0.814375 0.000000
0.040000 0.876250 0.000000
0.100000 0.876250 0.000000
0.160000 0.876250 0.000000
0.220000 0.876250 0.000000
0.280000 0.876250 0.000000
0.340000 0.876250 0.000000
0.400000 0.876250 0.000000
0.460000 0.876250 0.000000
0.520000 0.876250 0.000000
0.580000 0.876250 0.000000
0.640000 0.876250 0.000000
0.700000 0.876250 0.000000
0.760000 0.876250 0.000000
0.820000 0.876250 0.000000
0.880000 0.876250 0.000000
0.940000 0.876250 0.000000
1.000000 0.876250 0.000000
0.040000 0.938125 0.000000
0.100000 0.938125 0.000000
0.160000 0.938125 0.000000
0.220000 0.938125 0.000000
0.280000 0.938125 0.000000
0.340000 0.938125 0.000000
0.400000 0.938125 0.000000
0.460000 0.938125 0.000000
0.520000 0.938125 0.000000
0.580000 0.938125 0.000000
0.640000 0.938125 0.000000
0.700000 0.938125 0.000000
0.760000 0.938125 0.000000
0.820000 0.938125 0.000000
0.880000 0.938125 0.000000
0.940000 0.938125 0.000000
1.000000 0.938125 0.000000
0.040000 1.000000 0.000000
0.100000 1.000000 0.000000
0.160000 1.000000 0.000000
0.220000 1.000000 0.000000
0.280000 1.000000 0.000000
0.340000 1.000000 0.000000
0.400000 1.000000 0.000000
0.460000 1.000000 0.000000
0.520000 1.000000 0.000000
0.580000 1.000000 0.000000
0.640000 1.000000 0.000000
0.700000 1.000000 0.000000
0.760000 1.000000 0.000000
0.820000 1.000000 0.000000
0.880000 1.000000 0.000000
0.940000 1.000000 0.000000
1.000000 1.000000 0.000000
0.040000 0.010000 0.060000
0.100000 0.010000 0.060000
0.160000 0.010000 0.060000
0.220000 0.010000 0.060000
0.280000 0.010000 0.060000
0.340000 0.010000 0.060000
0.400000 0.010000 0.060000
0.460000 0.010000 0.060000
0.520000 0.010000 0.060000
0.580000 0.010000 0.060000
0.640000 0.010000 0.060000
0.700000 0.010000 0.060000
0.760000 0.010000 0.060000
0.820000 0.010000 0.060000
0.880000 0.010000 0.060000
0.940000 0.010000 0.060000
1.000000 0.010000 0.060000
0.040000 0.071875 0.060000
0.100000 0.071875 0.060000
0.160000 0.071875 0.060000
0.220000 0.071875 0.060000
0.280000 0.071875 0.060000
0.340000 0.071875 0.060000
0.400000 0.071875 0.060000
0.460000 0.071875 0.060000
0.520000 0.071875 0.060000
0.580000 0.071875 0.060000
0.640000 0.071875 0.060000
0.700000 0.071875 0.060000
0.760000 0.071875 0.060000
0.820000 0.071875 0.060000
0.880000 0.071875 0.060000
0.940000 0.071875 0.060000
1.000000 0.071875 0.060000
0.040000 0.133750 0.060000
0.100000 0.133750 0.060000
0.160000 0.133750 0.060000
0.220000 0.133750 0.060000
0.280000 0.133750 0.060000
0.340000 0.133750 0.060000
0.400000 0.133750 0.060000
0.460000 0.133750 0.060000
0.520000 0.133750 0.060000
0.580000 0.133750 0.060000
0.640000 0.133750 0.060000
0.700000 0.133750 0.060000
0.760000 0.133750 0.060000
0.820000 0.133750 0.060000
0.880000 0.133750 0.060000
0.940000 0.133750 0.060000
1.000000 0.133750 0.060000
0.040000 0.195625 0.060000
0.100000 0.195625 0.060000
0.160000 0.195625 0.060000
0.220000 0.195625 0.060000
0.280000 0.195625 0.060000
0.340000 0.195625 0.060000
0.400000 0.195625 0.060000
0.460000 0.195625 0.060000
0.520000 0.195625 0.060000
0.580000 0.195625 0.060000
0.640000 0.195625 0.060000
0.700000 0.195625 0.060000
0.760000 0.195625 0.060000
0.820000 0.195625 0.060000
0.880000 0.195625 0.060000
0.940000 0.195625 0.060000
1.000000 0.195625 0.060000
0.040000 0.257500 0.060000
0.100000 0.257500 0.060000
0.160000 0.257500 0.060000
0.220000 0.257500 0.060000
0.280000 0.257500 0.060000
0.340000 0.257500 0.060000
0.400000 0.257500 0.060000
0.460000 0.257500 0.060000
0.520000 0.257500 0.060000
0.580000 0.257500 0.060000
0.640000 0.257500 0.060000
0.700000 0.257500 0.060000
0.760000 0.257500 0.060000
0.820000 0.257500 0.060000
0.880000 0.257500 0.060000
0.940000 0.257500 0.060000
1.000000 0.257500 0.060000
0.040000 0.319375 0.060000
0.100000 0.319375 0.060000
0.160000 0.319375 0.060000
0.220000 0.319375 0.060000
0.280000 0.319375 0.060000
0.340000 0.319375 0.060000
0.400000 0.319375 0.060000
0.460000 0.319375 0.060000
0.520000 0.319375 0.060000
0.580000 0.319375 0.060000
0.640000 0.319375 0.060000
0.700000 0.319375 0.060000
0.760000 0.319375 0.060000
0.820000 0.319375 0.060000
0.880000 0.319375 0.060000
0.940000 0.319375 0.060000
1.000000 0.319375 0.060000
0.040000 0.381250 0.060000
0.100000 0.381250 0.060000
0.160000 0.381250 0.060000
0.220000 0.381250 0.060000
0.280000 0.381250 0.060000
0.340000 0.381250 0.060000
0.400000 0.381250 0.060000
0.460000 0.381250 0.060000
0.520000 0.381250 0.060000
0.580000 0.381250 0.060000
0.640000 0.381250 0.060000
0.700000 0.381250 0.060000
0.760000 0.381250 0.060000
0.820000 0.381250 0.060000
0.880000 0.381250 0.060000
0.940000 0.381250 0.060000
1.000000 0.381250 0.060000
0.040000 0.443125 0.060000
0.100000 0.443125 0.060000
0.160000 0.443125 0.060000
0.220000 0.443125 0.060000
0.280000 0.443125 0.060000
0.340000 0.443125 0.060000
0.400000 0.443125 0.060000
0.460000 0.443125 0.060000
0.520000 0.443125 0.060000
0.580000 0.443125 0.060000
0.640000 0.443125 0.060000
0.700000 0.443125 0.060000
0.760000 0.443125 0.060000
0.820000 0.443125 0.060000
0.880000 0.443125 0.060000
0.940000 0.443125 0.060000
1.000000 0.443125 0.060000
0.040000 0.505000 0.060000
0.100000 0.505000 0.060000
0.160000 0.505000 0.060000
0.220000 0.505000 0.060000
0.280000 0.505000 0.060000
0.340000 0.505000 0.060000
0.400000 0.505000 0.060000
0.460000 0.505000 0.060000
0.520000 0.505000 0.060000
0.580000 0.505000 0.060000
0.640000 0.505000 0.060000
0.700000 0.505000 0.060000
0.760000 0.505000 0.060000
0.820000 0.505000 0.060000
0.880000 0.505000 0.060000
0.940000 0.505000 0.060000
1.000000 0.505000 0.060000
0.040000 0.566875 0.060000
0.100000 0.566875 0.060000
0.160000 0.566875 0.060000
0.220000 0.566875 0.060000
0.280000 0.566875 0.060000
0.340000 0.566875 0.060000
0.400000 0.566875 0.060000
0.460000 0.566875 0.060000
0.520000 0.566875 0.060000
0.580000 0.566875 0.060000
0.640000 0.566875 0.060000
0.700000 0.566875 0.060000
0.760000 0.566875 0.060000
0.820000 0.566875 0.060000
0.880000 0.566875 0.060000
0.940000 0.566875 0.060000
1.000000 0.566875 0.060000
0.040000 0.628750 0.060000
0.100000 0.628750 0.060000
0.160000 0.628750 0.060000
0.220000 0.628750 0.060000
0.280000 0.628750 0.060000
0.340000 0.628750 0.060000
0.400000 0.628750 0.060000
0.460000 0.628750 0.060000
0.520000 0.628750 0.060000
0.580000 0.628750 0.060000
0.640000 0.628750 0.060000
0.700000 0.628750 0.060000
0.760000 0.628750 0.060000
0.820000 0.628750 0.060000
0.880000 0.628750 0.060000
0.940000 0.628750 0.060000
1.000000 0.628750 0.060000
0.040000 0.690625 0.060000
0.100000 0.690625 0.060000
0.160000 0.690625 0.060000
0.220000 0.690625 0.060000
0.280000 0.690625 0.060000
0.340000 0.690625 0.060000
0.400000 0.690625 0.060000
0.460000 0.690625 0.060000
0.520000 0.690625 0.060000
0.580000 0.690625 0.060000
0.640000 0.690625 0.060000
0.700000 0.690625 0.060000
0.760000 0.690625 0.060000
0.820000 0.690625 0.060000
0.880000 0.690625 0.060000
0.940000 0.690625 0.060000
1.000000 0.690625 0.060000
0.040000 0.752500 0.060000
0.100000 0.752500 0.060000
0.160000 0.752500 0.060000
0.220000 0.752500 0.060000
0.280000 0.752500 0.060000
0.340000 0.752500 0.060000
0.400000 0.752500 0.060000
0.460000 0.752500 0.060000
0.520000 0.752500 0.060000
0.580000 0.752500 0.060000
0.640000 0.752500 0.060000
0.700000 0.752500 0.060000
0.760000 0.752500 0.060000
0.820000 0.752500 0.060000
0.880000 0.752500 0.060000
0.940000 0.752500 0.060000
1.000000 0.752500 0.060000
0.040000 0.814375 0.060000
0.100000 0.814375 0.060000
0.160000 0.814375 0.060000
0.220000 0.814375 0.060000
0.280000 0.814375 0.060000
0.340000 0.814375 0.060000
0.400000 0.814375 0.060000
0.460000 0.814375 0.060000
0.520000 0.814375 0.060000
0.580000 0.814375 0.060000
0.640000 0.814375 0.060000
0.700000 0.814375 0.060000
0.760000 0.814375 0.060000
0.820000 0.814375 0.060000
0.880000 0.814375 0.060000
0.940000 0.814375 0.060000
1.000000 0.814375 0.060000
0.040000 0.876250 0.060000
0.100000 0.876250 0.060000
0.160000 0.876250 0.060000
0.220000 0.876250 0.060000
0.280000 0.876250 0.060000
0.340000 0.876250 0.060000
0.400000 0.876250 0.060000
0.460000 0.876250 0.060000
0.520000 0.876250 0.060000
0.580000 0.876250 0.060000
0.640000 0.876250 0.060000
0.700000 0.876250 0.060000
0.760000 0.876250 0.060000
0.820000 0.876250 0.060000
0.880000 0.876250 0.060000
0.940000 0.876250 0.060000
1.000000 0.876250 0.060000
0.040000 0.938125 0.060000
0.100000 0.938125 0.060000
0.160000 0.938125 0.060000
0.220000 0.938125 0.060000
0.280000 0.938125 0.060000
0.340000 0.938125 0.060000
0.400000 0.938125 0.060000
0.460000 0.938125 0.060000
0.520000 0.938125 0.060000
0.580000 0.938125 0.060000
0.640000 0.938125 0.060000
0.700000 0.938125 0.060000
0.760000 0.938125 0.060000
0.820000 0.938125 0.060000
0.880000 0.938125 0.060000
0.940000 0.938125 0.060000
1.000000 0.938125 0.060000
0.040000 1.000000 0.060000
0.100000 1.000000 0.060000
0.160000 1.000000 0.060000
0.220000 1.000000 0.060000
0.280000 1.000000 0.060000
0.340000 1.000000 0.060000
0.400000 1.000000 0.060000
0.460000 1.000000 0.060000
0.520000 1.000000 0.060000
0.580000 1.000000 0.060000
0.640000 1.000000 0.060000
0.700000 1.000000 0.060000
0.760000 1.000000 0.060000
0.820000 1.000000 0.060000
0.880000 1.000000 0.060000
0.940000 1.000000 0.060000
1.000000 1.000000 0.060000
0.040000 0.010000 0.120000
0.100000 0.010000 0.120000
0.160000 0.010000 0.120000
0.220000 0.010000 0.120000
0.280000 0.010000 0.120000
0.340000 0.010000 0.120000
0.400000 0.010000 0.120000
0.460000 0.010000 0.120000
0.520000 0.010000 0.120000
0.580000 0.010000 0.120000
0.640000 0.010000 0.120000
0.700000 0.010000 0.120000
0.760000 0.010000 0.120000
0.820000 0.010000 0.120000
0.880000 0.010000 0.120000
0.940000 0.010000 0.120000
1.000000 0.010000 0.120000
0.040000 0.071875 0.120000
0.100000 0.071875 0.120000
0.160000 0.071875 0.120000
0.220000 0.071875 0.120000
0.280000 0.071875 0.120000
0.340000 0.071875 0.120000
0.400000 0.071875 0.120000
0.460000 0.071875 0.120000
0.520000 0.071875 0.120000
0.580000 0.071875 0.120000
0.640000 0.071875 0.120000
0.700000 0.071875 0.120000
0.760000 0.071875 0.120000
0.820000 0.071875 0.120000
0.880000 0.071875 0.120000
0.940000 0.071875 0.120000
1.000000 0.071875 0.120000
0.040000 0.133750 0.120000
0.100000 0.133750 0.120000
0.160000 0.133750 0.120000
0.220000 0.133750 0.120000
0.280000 0.133750 0.120000
0.340000 0.133750 0.120000
0.400000 0.133750 0.120000
0.460000 0.133750 0.120000
0.520000 0.133750 0.120000
0.580000 0.133750 0.120000
0.640000 0.133750 0.120000
0.700000 0.133750 0.120000
0.760000 0.133750 0.120000
0.820000 0.133750 0.120000
0.880000 0.133750 0.120000
0.940000 0.133750 0.120000
1.000000 0.133750 0.120000
0.040000 0.195625 0.120000
0.100000 0.195625 0.120000
0.160000 0.195625 0.120000
0.220000 0.195625 0.120000
0.280000 0.195625 0.120000
0.340000 0.195625 0.120000
0.400000 0.195625 0.120000
0.460000 0.195625 0.120000
0.520000 0.195625 0.120000
0.580000 0.195625 0.120000
0.640000 0.195625 0.120000
0.700000 0.195625 0.120000
0.760000 0.195625 0.120000
0.820000 0.195625 0.120000
0.880000 0.195625 0.120000
0.940000 0.195625 0.120000
1.000000 0.195625 0.120000
0.040000 0.257500 0.120000
0.100000 0.257500 0.120000
0.160000 0.257500 0.120000
0.220000 0.257500 0.120000
0.280000 0.257500 0.120000
0.340000 0.257500 0.120000
0.400000 0.257500 0.120000
0.460000 0.257500 0.120000
0.520000 0.257500 0.120000
0.580000 0.257500 0.120000
0.640000 0.257500 0.120000
0.700000 0.257500 0.120000
0.760000 0.257500 0.120000
0.820000 0.257500 0.120000
0.880000 0.257500 0.120000
0.940000 0.257500 0.120000
1.000000 0.257500 0.120000
0.040000 0.319375 0.120000
0.100000 0.319375 0.120000
0.160000 0.319375 0.120000
0.220000 0.319375 0.120000
0.280000 0.319375 0.120000
0.340000 0.319375 0.120000
0.400000 0.319375 0.120000
0.460000 0.319375 0.120000
0.520000 0.319375 0.120000
0.580000 0.319375 0.120000
0.640000 0.319375 0.120000
0.700000 0.319375 0.120000
0.760000 0.319375 0.120000
0.820000 0.319375 0.120000
0.880000 0.319375 0.120000
0.940000 0.319375 0.120000
1.000000 0.319375 0.120000
0.040000 0.381250 0.120000
0.100000 0.381250 0.120000
0.160000 0.381250 0.120000
0.220000 0.381250 0.120000
0.280000 0.381250 0.120000
0.340000 0.381250 0.120000
0.400000 0.381250 0.120000
0.460000 0.381250 0.120000
0.520000 0.381250 0.120000
0.580000 0.381250 0.120000
0.640000 0.381250 0.120000
0.700000 0.381250 0.120000
0.760000 0.381250 0.120000
0.820000 0.381250 0.120000
0.880000 0.381250 0.120000
0.940000 0.381250 0.120000
1.000000 0.381250 0.120000
0.040000 0.443125 0.120000
0.100000 0.443125 0.120000
0.160000 0.443125 0.120000
0.220000 0.443125 0.120000
0.280000 0.443125 0.120000
0.340000 0.443125 0.120000
0.400000 0.443125 0.120000
0.460000 0.443125 0.120000
0.520000 0.443125 0.120000
0.580000 0.443125 0.120000
0.640000 0.443125 0.120000
0.700000 0.443125 0.120000
0.760000 0.443125 0.120000
0.820000 0.443125 0.120000
0.880000 0.443125 0.120000
0.940000 0.443125 0.120000
1.000000 0.443125 0.120000
0.040000 0.505000 0.120000
0.100000 0.505000 0.120000
0.160000 0.505000 0.120000
0.220000 0.505000 0.120000
0.280000 0.505000 0.120000
0.340000 0.505000 0.120000
0.400000 0.505000 0.120000
0.460000 0.505000 0.120000
0.520000 0.505000 0.120000
0.580000 0.505000 0.120000
0.640000 0.505000 0.120000
0.700000 0.505000 0.120000
0.760000 0.505000 0.120000
0.820000 0.505000 0.120000
0.880000 0.505000 0.120000
0.940000 0.505000 0.120000
1.000000 0.505000 0.120000
0.040000 0.566875 0.120000
0.100000 0.566875 0.120000
0.160000 0.566875 0.120000
0.220000 0.566875 0.120000
0.280000 0.566875 0.120000
0.340000 0.566875 0.120000
0.400000 0.566875 0.120000
0.460000 0.566875 0.120000
0.520000 0.566875 0.120000
0.580000 0.566875 0.120000
0.640000 0.566875 0.120000
0.700000 0.566875 0.120000
0.760000 0.566875 0.120000
0.820000 0.566875 0.120000
0.880000 0.566875 0.120000
0.940000 0.566875 0.120000
1.000000 0.566875 0.120000
0.040000 0.628750 0.120000
0.100000 0.628750 0.120000
0.160000 0.628750 0.120000
0.220000 0.628750 0.120000
0.280000 0.628750 0.120000
0.340000 0.628750 0.120000
0.400000 0.628750 0.120000
0.460000 0.628750 0.120000
0.520000 0.628750 0.120000
0.580000 0.628750 0.120000
0.640000 0.628750 0.120000
0.700000 0.628750 0.120000
0.760000 0.628750 0.120000
0.820000 0.628750 0.120000
0.880000 0.628750 0.120000
0.940000 0.628750 0.120000
1.000000 0.628750 0.120000
0.040000 0.690625 0.120000
0.100000 0.690625 0.120000
0.160000 0.690625 0.120000
0.220000 0.690625 0.120000
0.280000 0.690625 0.120000
0.340000 0.690625 0.120000
0.400000 0.690625 0.120000
0.460000 0.690625 0.120000
0.520000 0.690625 0.120000
0.580000 0.690625 0.120000
0.640000 0.690625 0.120000
0.700000 0.690625 0.120000
0.760000 0.690625 0.120000
0.820000 0.690625 0.120000
0.880000 0.690625 0.120000
0.940000 0.690625 0.120000
1.000000 0.690625 0.120000
0.040000 0.752500 0.120000
0.100000 0.752500 0.120000
0.160000 0.752500 0.120000
0.220000 0.752500 0.120000
0.280000 0.752500 0.120000
0.340000 0.752500 0.120000
0.400000 0.752500 0.120000
0.460000 0.752500 0.120000
0.520000 0.752500 0.120000
0.580000 0.752500 0.120000
0.640000 0.752500 0.120000
0.700000 0.752500 0.120000
0.760000 0.752500 0.120000
0.820000 0.752500 0.120000
0.880000 0.752500 0.120000
0.940000 0.752500 0.120000
1.000000 0.752500 0.120000
0.040000 0.814375 0.120000
0.100000 0.814375 0.120000
0.160000 0.814375 0.120000
0.220000 0.814375 0.120000
0.280000 0.814375 0.120000
0.340000 0.814375 0.120000
0.400000 0.814375 0.120000
0.460000 0.814375 0.120000
0.520000 0.814375 0.120000
0.580000 0.814375 0.120000
0.640000 0.814375 0.120000
0.700000 0.814375 0.120000
0.760000 0.814375 0.120000
0.820000 0.814375 0.120000
0.880000 0.814375 0.120000
0.940000 0.814375 0.120000
1.000000 0.814375 0.120000
0.040000 0.876250 0.120000
0.100000 0.876250 0.120000
0.160000 0.876250 0.120000
0.220000 0.876250 0.120000
0.280000 0.876250 0.120000
0.340000 0.876250 0.120000
0.400000 0.876250 0.120000
0.460000 0.876250 0.120000
0.520000 0.876250 0.120000
0.580000 0.876250 0.120000
0.640000 0.876250 0.120000
0.700000 0.876250 0.120000
0.760000 0.876250 0.120000
0.820000 0.876250 0.120000
0.880000 0.876250 0.120000
0.940000 0.876250 0.120000
1.000000 0.876250 0.120000
0.040000 0.938125 0.120000
0.100000 0.938125 0.120000
0.160000 0.938125 0.120000
0.220000 0.938125 0.120000
0.280000 0.938125 0.120000
0.340000 0.938125 0.120000
0.400000 0.938125 0.120000
0.460000 0.938125 0.120000
0.520000 0.938125 0.120000
0.580000 0.938125 0.120000
0.640000 0.938125 0.120000
0.700000 0.938125 0.120000
0.760000 0.938125 0.120000
0.820000 0.938125 0.120000
0.880000 0.938125 0.120000
0.940000 0.938125 0.120000
1.000000 0.938125 0.120000
0.040000 1.000000 0.120000
0.100000 1.000000 0.120000
0.160000 1.000000 0.120000
0.220000 1.000000 0.120000
0.280000 1.000000 0.120000
0.340000 1.000000 0.120000
0.400000 1.000000 0.120000
0.460000 1.000000 0.120000
0.520000 1.000000 0.120000
0.580000 1.000000 0.120000
0.640000 1.000000 0.120000
0.700000 1.000000 0.120000
0.760000 1.000000 0.120000
0.820000 1.000000 0.120000
0.880000 1.000000 0.120000
0.940000 1.000000 0.120000
1.000000 1.000000 0.120000
0.040000 0.010000 0.180000
0.100000 0.010000 0.180000
0.160000 0.010000 0.180000
0.220000 0.010000 0.180000
0.280000 0.010000 0.180000
0.340000 0.010000 0.180000
0.400000 0.010000 0.180000
0.460000 0.010000 0.180000
0.520000 0.010000 0.180000
0.580000 0.010000 0.180000
